X:1
T:THE HIGH ROAD TO GAIRLOCH
M:C|
L:1/8
Q:80
C:Traditional
S:March
K:HP
|: {g}e3/2f/2{g}eA | \
{gcd}c{e}A{g}e2 | \
{Gdc}d{g}f/2e/2{Gdc}d{e}G |
{gBd}B{e}G{Gdc}d2 | \
{g}e3/2f/2{g}eA | \
{gcd}c{e}A{g}e2 |
{g}A3/2B/2{gcd}c{e}A | \
{gBd}B2{G}A2 :: \
{gcd}c{e}A{g}A3/2B/2 |
{gcd}c{e}A{gcd}c2 | \
{Gdc}d3/2c/2{g}B3/2c/2 | \
{Gdc}d{e}B{Gdc}d2 |
{gcd}c{e}A{g}A3/2B/2 | \
{gcd}c{e}B{gcd}ce | \
{g}A3/2B/2{gcd}c{e}A |
{gBd}B2{G}A2 :|
